!!!COM: Palestrina, Giovanni Perluigi da
!!!OPR: Missa Salve regina
!!!OMD: Gloria
!!!OTL: First Section
**kern	**kern	**kern	**kern	**kern
*Ibass	*Itenor	*Icalto	*Icalto	*Icant
!Bassus	!Tenor	!Altus 2	!Altus 1	!Cantus
*clefF4	*clefGv2	*clefG2	*clefG2	*clefG2
*k[b-]	*k[b-]	*k[b-]	*k[b-]	*k[b-]
*G:dor	*G:dor	*G:dor	*G:dor	*G:dor
*M4/2	*M4/2	*M4/2	*M4/2	*M4/2
=1	=1	=1	=1	=1
0r	1.d	1.f#	1.a	1.dd
.	2d	2f#	2a	2dd
=2	=2	=2	=2	=2
0r	1B-	1d	1g	1dd
.	1A	1e	1a	1cc
=3	=3	=3	=3	=3
0r	2G	2g	1d	2b-
.	1d	2f	.	2a
.	.	4f	1a	[1ff
.	.	4g	.	.
.	[2f	4a	.	.
.	.	4b-	.	.
=4	=4	=4	=4	=4
0r	2f]	2cc	2a	2ff]
.	2c	2cc	2g	2ee
.	1d	1a	1f	2dd
.	.	.	.	[2dd
=5	=5	=5	=5	=5
0r	1A	1a	1e	2dd]
.	.	.	.	2cc#
.	1B-	2f	1d	4dd
.	.	.	.	4cc
.	.	4g	.	4b-
.	.	4f	.	4a
=6	=6	=6	=6	=6
0r	2c	4e	2e	2g
.	.	4d	.	.
.	2A	2c	2f	2a
.	1G	1d	2.g	4b-
.	.	.	.	4cc
.	.	.	.	[2dd
.	.	.	4f	.
=7	=7	=7	=7	=7
1r	1A	1a	1e	2dd]
.	.	.	.	2cc#
1G	1B-	1g	[1d	1dd
=8	=8	=8	=8	=8
2.B-	1G	2r	1d]	0ee
.	.	1g	.	.
4A	.	.	.	.
4G	2.B-	.	1r	.
4F	.	.	.	.
[2G	.	[2b-	.	.
.	4A	.	.	.
=9	=9	=9	=9	=9
2G]	4B-	2b-]	1r	0r
.	4c	.	.	.
2F	1d	2a	.	.
1E	.	[1g	2r	.
.	2c#	.	2g	.
=10	=10	=10	=10	=10
1D	0d	2g]	2b-	2r
.	.	2f	4a	2dd
.	.	.	4g	.
1r	.	2r	2a	2.ff
.	.	2a	2f	.
.	.	.	.	4ee
=11	=11	=11	=11	=11
1G	0r	1.b-	1g	4dd
.	.	.	.	4cc
.	.	.	.	1dd
2B-	.	.	2.f	.
2F	.	2a	.	2cc
.	.	.	4e	.
=12	=12	=12	=12	=12
1G	2.d	2g	4d	1b-
.	.	.	4c	.
.	.	2.d	4B-	.
.	4d	.	4A	.
1D	2.f	.	1d	1a
.	.	4d	.	.
.	.	[2f	.	.
.	4e	.	.	.
=13	=13	=13	=13	=13
0r	4d	4f]	2.a	2.dd
.	4c	4e	.	.
.	1d	4f	.	.
.	.	4g	4a	4dd
.	.	1a	2d	2ff
.	2c	.	2e	[2ee
=14	=14	=14	=14	=14
0r	1B-	2b-	2f	4ee]
.	.	.	.	4dd
.	.	2g	4e	1dd
.	.	.	4d	.
.	1A	2.a	1e	.
.	.	.	.	2cc#
.	.	4g	.	.
=15	=15	=15	=15	=15
2r	2.B-	4f	0d	[0dd
.	.	4e	.	.
1G	.	4d	.	.
.	4c	4c	.	.
.	2d	2.B-	.	.
2G	[2G	.	.	.
.	.	4c	.	.
=16	=16	=16	=16	=16
2.B-	2G]	1d	2r	0dd]
.	2G	.	2g	.
4A	.	.	.	.
4G	2.B-	2r	2g	.
4F	.	.	.	.
[2G	.	[2d	[2b-	.
.	4A	.	.	.
=17	=17	=17	=17	=17
2G]	4B-	2d]	2b-]	0r
.	4c	.	.	.
2F	1d	2d	2a	.
1E	.	2G	1g	.
.	2c#	2G	.	.
=18	=18	=18	=18	=18
0D	4d	2A	2.f	1r
.	4c	.	.	.
.	4d	2d	.	.
.	4e	.	4g	.
.	2.f	2d	1a	2r
.	.	2d	.	2dd
.	4e	.	.	.
=19	=19	=19	=19	=19
0r	1d	2.f	2r	2dd
.	.	.	2a	2dd
.	.	4e	.	.
.	1r	4d	2a	2.ff
.	.	4c	.	.
.	.	2d	2a	.
.	.	.	.	4ee
=20	=20	=20	=20	=20
0r	0r	2.B-	2.b-	4dd
.	.	.	.	4cc
.	.	.	.	1dd
.	.	4c	4a	.
.	.	4d	4f	.
.	.	4e	4g	.
.	.	2f	[2a	2cc
=21	=21	=21	=21	=21
0r	0r	1g	4a]	1b-
.	.	.	4g	.
.	.	.	1g	.
.	.	1d	.	1a
.	.	.	2f#	.
=22	=22	=22	=22	=22
1.C	1.c	1.e	2g	1.cc
.	.	.	1g	.
2C	2c	2e	2g	2cc
=23	=23	=23	=23	=23
1G	1B	2d	1g	1dd
.	.	1g	.	.
[1c	4c	.	2e	[1ee
.	4d	.	.	.
.	4e	2g	2c	.
.	4f	.	.	.
=24	=24	=24	=24	=24
2c]	2g	4e	1cc	2ee]
.	.	4f	.	.
2c	2e	4g	.	2ee
.	.	8f	.	.
.	.	8g	.	.
1A	[1c	2a	1cc	1ee
.	.	[2a	.	.
=25	=25	=25	=25	=25
2.F	1c]	4a]	1a	0ff
.	.	4g	.	.
.	.	2.f	.	.
4E	.	.	.	.
1D	1d	.	1a	.
.	.	4e	.	.
.	.	[2d	.	.
=26	=26	=26	=26	=26
2A	1e	2d]	1a	2ee
1A	.	4c#	.	1ee
.	.	4B	.	.
.	1r	2c#	[1a	.
2d	.	2d	.	2ff
=27	=27	=27	=27	=27
2c	0r	0r	2a]	2ee
2B-	.	.	2b-	2dd
2.c	.	.	2a	2.ee
.	.	.	2g	.
4B-	.	.	.	4dd
=28	=28	=28	=28	=28
2A	2r	2r	2.a	2cc
2D	1d	1a	.	2.ff
.	.	.	4g	.
1d	.	.	2f	.
.	.	.	.	4ee
.	2G	2b-	4g	2dd
.	.	.	4f	.
=29	=29	=29	=29	=29
0r	2A	2a	2e	2cc#
.	2B-	2g	2d	1dd
.	1A	2.a	1e	.
.	.	.	.	2cc#
.	.	4g	.	.
=30	=30	=30	=30	=30
2r	2r	2f	2d	1dd
2.d	2.f	2d	2.a	.
.	.	1A	.	1r
4d	4f	.	4a	.
2c#	2e	.	2a	.
=31	=31	=31	=31	=31
1d	1f	0r	2b-	0r
.	.	.	2a	.
2G	2d	.	2b-	.
[2d	[2f	.	2a	.
=32	=32	=32	=32	=32
2d]	2f]	2r	1a	1r
2c	2e	1a	.	.
1B-	2f	.	1d	2r
.	4e	2g	.	[2dd
.	4d	.	.	.
=33	=33	=33	=33	=33
1A	1e	1a	1r	2dd]
.	.	.	.	2cc#
1G	1g	2d	2r	1dd
.	.	[2b-	[2g	.
=34	=34	=34	=34	=34
0r	0r	4b-]	2g]	2g
.	.	4g	.	.
.	.	2a	2f#	1dd
.	.	2b-	2g	.
.	.	[2a	2c	[2cc
=35	=35	=35	=35	=35
0r	0r	4a]	1e-	4cc]
.	.	4g	.	4b-
.	.	1g	.	4b-
.	.	.	.	8a
.	.	.	.	8g
.	.	.	2.d	2a
.	.	2f#	.	2a
.	.	.	4d	.
=36	=36	=36	=36	=36
2r	2r	2g	2G	1g
2.G	2.d	2.b-	2.g	.
.	.	.	.	1r
4G	4d	4b-	4g	.
2F#	2d	2a	2a	.
=37	=37	=37	=37	=37
1G	1d	2g	1b	0r
.	.	2g	.	.
2C	2e-	2.g	2cc	.
[2G	2d	.	[2b-	.
.	.	4f	.	.
=38	=38	=38	=38	=38
2G]	2G	4e-	2b-]	1r
.	.	4d	.	.
2F	2A	1d	2a	.
2E-	2B-	.	2.g	2r
2E-	2G	2c	.	[2gg
.	.	.	4a	.
=39	=39	=39	=39	=39
1D	2r	2.d	2b-	4gg]
.	.	.	.	4gg
.	2d	.	2a	2ff#
.	.	4d	.	.
1r	2B	2d	2.g	1gg
.	[2c	2e	.	.
.	.	.	4f	.
=40	=40	=40	=40	=40
0r	2c]	1g	2e	2dd
.	2B-	.	2d	2gg
.	2.A	1a	2c	2ff
.	.	.	[2cc	4ee
.	4B-	.	.	4dd
=41	=41	=41	=41	=41
0r	2c	2g	2cc]	2ee
.	2d	2f	2a	1dd
.	1A	1e	1a	.
.	.	.	.	2cc#
=42	=42	=42	=42	=42
0G	1d	0g	0b-	1dd
.	2.B-	.	.	[1dd
.	4c	.	.	.
=43	=43	=43	=43	=43
0D	4d	2.f	1a	1dd]
.	4e	.	.	.
.	4f	.	.	.
.	4g	4e	.	.
.	[1a	1d	[1f	[1ff
=44	=44	=44	=44	=44
0F	2a]	1c	2f]	2ff]
.	2g	.	2g	2ee
.	2f	1A	1a	2dd
.	2e	.	.	[2cc
=45	=45	=45	=45	=45
0G	0d	2r	1g	2cc]
.	.	2d	.	4b
.	.	.	.	4a
.	.	2G	2.g	1b
.	.	[2g	.	.
.	.	.	4f	.
=46	=46	=46	=46	=46
0C	0c	4g]	2e-	0cc
.	.	4f	.	.
.	.	4e-	2c	.
.	.	4d	.	.
.	.	1e-	1g	.
=47	=47	=47	=47	=47
0G	0B	0d	0g	0dd
*-	*-	*-	*-	*-
!!!CDT: 1525/^1526/-1594/2/2
!!!OCY: Italia
!!!AGN: Mass (Paraphrase)
!!!AST: renaissance, vocal
!!!ASW: Antiphon
!!!PWK: Masses, Book 11
!!!RNB: Cadence finals: D
!!!YOR: Le Opere Complete, v. 28, p. 185
!!!YOO: Rome, Italy: Fratelli Scalera
!!!END: 1992//
!!!EED: John Miller
!!!YEC: Copyright 2000, John Miller
!!!YEN: United States of America
!!!YEM: Rights to all derivative electronic formats reserved.
!!!YEM: Refer to licensing agreement for further details.
!!!YEM: This file must be accompanied by the licensing agreement.
!!!YEM: A copy of the licensing agreement may be found at http://www.music-cog.ohio-state.edu/HumdrumDatabases/Palestrina/license.txt
!!!EMD: converted to Humdrum by Bret Aarden
